X:5241
T:President Garfield's
O:england
R:reel
D:Paul O'Shaughnessy & Paul McGrattan: Within a Mile of Dublin
M:C|
K:D
fe|:dAFA dAFA|dcde fefg|aece aece|a2bg agfe|
dAFA dAFA|dcde fefg|ad'c'b agfe|1 (3ded ce d2fe:|2 (3ded ce d2d'c'||
|:bgdB GBd'b|afda fdba|geba geba|fdba fdga|
bgdB GBd'b|afda fdc'b|abc'b agfe|1 (3ded ce d2d'c':|2 (3ded ce d2||


